X: 1
T: T\'ir na n\'Og (tune 2)
R: reel
Z: 2013 John Chambers <jc:trillian.mit.edu>
S: File From George Meikle 2013-12-1
M: C|
L: 1/8
K: F
c |\
"F"fcc2 fcc2 | "Bb"defg "C7"ecc2 | "Bb"df"F"cf "Gm"Bf"F"Af | "Gm"B<{c}d "C7"cB "F"AFF :|
f |\
"F"bagf "C"egc'2 | "Dm"f2"(C)"ed "F"cfaf | "C7"edcB "F"Acfa | "Gm"bg"F"af "C7"egg2 |
"F"fcc2 fcc2 | "Bb"defg "C7"ecc2 | "Bb"db"F"ca "Gm"Bg"F"Af | "Gm"B<{c}d "C7"cB "F"AFF |]
